components/Common/Svg/svgs/wireframe.svg

<svg width="40" height="40" viewBox="0 0 40 40" fill="none" xmlns="http://www.w3.org/2000/svg">
<path fill-rule="evenodd" clip-rule="evenodd" d="M4.7975 6H35.393C36.9355 6 38.1905 7.26889 38.1905 8.8285V31.7429C38.1905 33.3025 36.9355 34.5714 35.393 34.5714H4.7975C3.25498 34.5714 2 33.3025 2 31.7429V8.8285C2 7.26889 3.25498 6 4.7975 6ZM35.393 7.07411H4.7975C3.84076 7.07411 3.06234 7.86115 3.06234 8.8285V10.5829H37.1281V8.8285C37.1281 7.86115 36.3497 7.07411 35.393 7.07411ZM4.7975 33.4973H35.393C36.3497 33.4973 37.1281 32.7103 37.1281 31.7429V11.657H3.06234V31.7429C3.06234 32.7103 3.84076 33.4973 4.7975 33.4973ZM7.06205 18.4851C7.26663 18.4277 7.51484 18.4 7.76471 18.4H32.2353C32.4852 18.4 32.7334 18.4277 32.938 18.4851C33.0361 18.5126 33.159 18.5563 33.2713 18.6307C33.3602 18.6896 33.6 18.8746 33.6 19.2143V23.7143C33.6 24.0539 33.3602 24.239 33.2713 24.2979C33.159 24.3723 33.0361 24.416 32.938 24.4435C32.7334 24.5009 32.4852 24.5286 32.2353 24.5286H7.76471C7.51484 24.5286 7.26663 24.5009 7.06205 24.4435C6.96393 24.416 6.84102 24.3723 6.72873 24.2979C6.63982 24.239 6.4 24.0539 6.4 23.7143V19.2143C6.4 18.8746 6.63982 18.6896 6.72873 18.6307C6.84102 18.5563 6.96393 18.5126 7.06205 18.4851ZM7.76471 19.6C7.70486 19.6 7.64963 19.6025 7.6 19.6065V23.3221C7.64963 23.3261 7.70486 23.3286 7.76471 23.3286H32.2353C32.2951 23.3286 32.3504 23.3261 32.4 23.3221V19.6065C32.3504 19.6025 32.2951 19.6 32.2353 19.6H7.76471Z" fill="#161616"/>
<path fill-rule="evenodd" clip-rule="evenodd" d="M6.72893 24.2979L6.56324 24.548C6.45209 24.4743 6.1002 24.211 6.1002 23.7143V19.2143C6.1002 18.7176 6.45209 18.4542 6.56325 18.3806C6.71225 18.2819 6.86855 18.2278 6.98128 18.1962C7.21895 18.1296 7.49568 18.1 7.7649 18.1H32.2355C32.5047 18.1 32.7814 18.1296 33.0191 18.1962C33.1318 18.2278 33.2881 18.2819 33.4371 18.3806L33.2715 18.6307C33.1592 18.5563 33.0363 18.5126 32.9381 18.4851C32.7336 18.4277 32.4854 18.4 32.2355 18.4H7.7649C7.51503 18.4 7.26682 18.4277 7.06224 18.4851C6.96413 18.5126 6.84122 18.5563 6.72893 18.6307C6.64002 18.6896 6.4002 18.8746 6.4002 19.2143V23.7143C6.4002 24.0539 6.64002 24.239 6.72893 24.2979ZM7.06224 24.4435C6.96413 24.416 6.84122 24.3723 6.72893 24.2979L6.56324 24.548C6.71225 24.6467 6.86855 24.7008 6.98128 24.7324C7.21895 24.799 7.49568 24.8286 7.7649 24.8286H32.2355C32.5047 24.8286 32.7814 24.799 33.0191 24.7324C33.1318 24.7008 33.2881 24.6467 33.4371 24.548C33.5483 24.4743 33.9002 24.211 33.9002 23.7143V19.2143C33.9002 18.7176 33.5483 18.4542 33.4371 18.3806L33.2715 18.6307C33.3604 18.6896 33.6002 18.8746 33.6002 19.2143V23.7143C33.6002 24.0539 33.3604 24.239 33.2715 24.2979C33.1592 24.3723 33.0363 24.416 32.9381 24.4435C32.7336 24.5009 32.4854 24.5286 32.2355 24.5286H7.7649C7.51503 24.5286 7.26682 24.5009 7.06224 24.4435ZM4.7977 5.7H35.3932C37.1045 5.7 38.4907 7.10632 38.4907 8.8285V31.7429C38.4907 33.4651 37.1045 34.8714 35.3932 34.8714H4.7977C3.08638 34.8714 1.7002 33.4651 1.7002 31.7429V8.8285C1.7002 7.10632 3.08638 5.7 4.7977 5.7ZM35.3932 7.37411H4.7977C4.00975 7.37411 3.36254 8.02371 3.36254 8.8285V10.2829H36.8283V8.8285C36.8283 8.02371 36.1811 7.37411 35.3932 7.37411ZM4.7977 33.1973H35.3932C36.1811 33.1973 36.8283 32.5477 36.8283 31.7429V11.957H3.36254V31.7429C3.36254 32.5477 4.00975 33.1973 4.7977 33.1973ZM7.9002 19.9V23.0286H32.1002V19.9H7.9002ZM32.4002 19.6065V23.3221C32.3506 23.3261 32.2953 23.3286 32.2355 23.3286H7.7649C7.70506 23.3286 7.64982 23.3261 7.6002 23.3221V19.6065C7.64982 19.6024 7.70506 19.6 7.7649 19.6H32.2355C32.2953 19.6 32.3506 19.6024 32.4002 19.6065ZM35.3932 6H4.7977C3.25518 6 2.0002 7.26888 2.0002 8.8285V31.7429C2.0002 33.3025 3.25518 34.5714 4.7977 34.5714H35.3932C36.9357 34.5714 38.1907 33.3025 38.1907 31.7429V8.8285C38.1907 7.26888 36.9357 6 35.3932 6ZM4.7977 7.07411H35.3932C36.3499 7.07411 37.1283 7.86115 37.1283 8.8285V10.5829H3.06254V8.8285C3.06254 7.86115 3.84095 7.07411 4.7977 7.07411ZM35.3932 33.4973H4.7977C3.84095 33.4973 3.06254 32.7103 3.06254 31.7429V11.657H37.1283V31.7429C37.1283 32.7103 36.3499 33.4973 35.3932 33.4973Z" fill="#161616"/>
</svg>

<svg width="40" height="40" viewBox="0 0 40 40" fill="none" xmlns="http://www.w3.org/2000/svg"><path fill-rule="evenodd" clip-rule="evenodd" d="M4.798 6h30.595c1.542 0 2.797 1.269 2.797 2.828v22.915c0 1.56-1.255 2.828-2.797 2.828H4.797C3.255 34.571 2 33.302 2 31.743V8.828C2 7.268 3.255 6 4.798 6Zm30.595 1.074H4.797c-.956 0-1.735.787-1.735 1.754v1.755h34.066V8.828c0-.967-.778-1.754-1.735-1.754ZM4.797 33.497h30.596c.957 0 1.735-.787 1.735-1.754V11.657H3.062v20.086c0 .967.779 1.754 1.736 1.754Zm2.265-15.012c.205-.057.453-.085.703-.085h24.47c.25 0 .498.028.703.085.098.027.221.071.333.146a.704.704 0 0 1 .329.583v4.5c0 .34-.24.525-.329.584a1.187 1.187 0 0 1-.333.145 2.687 2.687 0 0 1-.703.085H7.765c-.25 0-.498-.027-.703-.085a1.187 1.187 0 0 1-.333-.145.704.704 0 0 1-.329-.584v-4.5c0-.34.24-.524.329-.583.112-.075.235-.119.333-.146Zm.703 1.115c-.06 0-.115.002-.165.006v3.716c.05.004.105.006.165.006h24.47c.06 0 .115-.002.165-.006v-3.716a2.055 2.055 0 0 0-.165-.006H7.765Z" fill="#161616"/><path fill-rule="evenodd" clip-rule="evenodd" d="m6.729 24.297-.166.25c-.11-.074-.463-.337-.463-.834v-4.5c0-.496.352-.76.463-.833.15-.099.306-.153.418-.185.238-.066.515-.096.784-.096h24.47c.27 0 .546.03.784.096.113.032.27.086.418.185l-.165.25a1.184 1.184 0 0 0-.334-.146 2.686 2.686 0 0 0-.703-.085H7.766c-.25 0-.498.028-.703.085a1.185 1.185 0 0 0-.333.146.704.704 0 0 0-.329.583v4.5c0 .34.24.525.329.584Zm.333.145a1.184 1.184 0 0 1-.333-.145l-.166.25c.15.099.306.153.418.184.238.067.515.097.784.097h24.47c.27 0 .546-.03.784-.097a1.44 1.44 0 0 0 .418-.184c.111-.074.463-.337.463-.834v-4.5c0-.496-.352-.76-.463-.833l-.165.25a.704.704 0 0 1 .328.583v4.5c0 .34-.24.525-.328.584a1.184 1.184 0 0 1-.334.145 2.681 2.681 0 0 1-.703.086H7.766c-.25 0-.498-.028-.703-.085ZM4.798 5.7h30.595c1.712 0 3.098 1.407 3.098 3.129v22.914c0 1.722-1.386 3.128-3.098 3.128H4.798c-1.712 0-3.098-1.406-3.098-3.128V8.828c0-1.722 1.386-3.129 3.098-3.129Zm30.595 1.674H4.798c-.788 0-1.435.65-1.435 1.455v1.454h33.465V8.828c0-.805-.647-1.455-1.435-1.455ZM4.798 33.196h30.595c.788 0 1.435-.65 1.435-1.454V11.956H3.363v19.786c0 .805.647 1.454 1.435 1.454ZM7.9 19.9v3.129h24.2V19.9H7.9Zm24.5-.294v3.716c-.05.004-.105.007-.164.007H7.765c-.06 0-.115-.003-.165-.007v-3.716c.05-.003.105-.006.165-.006h24.47c.06 0 .116.003.165.006ZM35.393 6H4.798C3.255 6 2 7.27 2 8.828v22.914c0 1.56 1.255 2.828 2.798 2.828h30.595c1.543 0 2.798-1.269 2.798-2.828V8.828c0-1.56-1.255-2.829-2.798-2.829ZM4.798 7.073h30.595c.957 0 1.735.787 1.735 1.755v1.754H3.063V8.828c0-.968.778-1.755 1.735-1.755Zm30.595 26.423H4.798a1.747 1.747 0 0 1-1.735-1.754V11.656h34.065v20.086c0 .967-.778 1.754-1.735 1.754Z" fill="#161616"/></svg>
